public/assets/images/typesOfPayment.svg

<svg width="85" height="66" viewBox="0 0 85 66" fill="none" xmlns="http://www.w3.org/2000/svg">
<path d="M67.3938 12.0332H17.6064C13.6783 12.0332 10.4939 15.2406 10.4939 19.1972V47.8531C10.4939 51.8097 13.6783 55.0171 17.6064 55.0171H67.3938C71.3219 55.0171 74.5062 51.8097 74.5062 47.8531V19.1972C74.5062 15.2406 71.3219 12.0332 67.3938 12.0332Z" stroke="#FF588A" stroke-width="3" stroke-linecap="round" stroke-linejoin="round"/>
<rect x="31.4814" y="31.9512" width="5.24194" height="20.9877" rx="1" transform="rotate(-90 31.4814 31.9512)" fill="#FF588A"/>
<rect x="31.4814" y="24.6133" width="4.71774" height="20.9877" rx="1" transform="rotate(-90 31.4814 24.6133)" fill="#FF588A"/>
<path d="M39.9976 30.9023H45.2661V45.6282C45.2661 46.1804 44.8183 46.6282 44.2661 46.6282H40.9976C40.4453 46.6282 39.9976 46.1804 39.9976 45.6282V30.9023Z" fill="#FF588A"/>
<path d="M64.2327 34.0488H65.2864" stroke="#FF588A" stroke-width="2" stroke-linecap="round" stroke-linejoin="round"/>
<path d="M21.0308 34.0488H22.0845" stroke="#FF588A" stroke-width="2" stroke-linecap="round" stroke-linejoin="round"/>
</svg>

<svg xmlns="http://www.w3.org/2000/svg" width="85" height="66" fill="none"><path stroke="#FF588A" stroke-linecap="round" stroke-linejoin="round" stroke-width="3" d="M67.394 12.033H17.606c-3.928 0-7.112 3.208-7.112 7.164v28.656c0 3.957 3.184 7.164 7.112 7.164h49.788c3.928 0 7.112-3.207 7.112-7.164V19.197c0-3.956-3.184-7.164-7.112-7.164Z"/><rect width="5.242" height="20.988" x="31.481" y="31.951" fill="#FF588A" rx="1" transform="rotate(-90 31.481 31.951)"/><rect width="4.718" height="20.988" x="31.481" y="24.613" fill="#FF588A" rx="1" transform="rotate(-90 31.481 24.613)"/><path fill="#FF588A" d="M39.998 30.902h5.268v14.726a1 1 0 0 1-1 1h-3.268a1 1 0 0 1-1-1V30.902Z"/><path stroke="#FF588A" stroke-linecap="round" stroke-linejoin="round" stroke-width="2" d="M64.233 34.049h1.053M21.03 34.049h1.054"/></svg>
